X: 34198
T: Reel Of Rio, The
R: reel
M: 4/4
K: Gmajor
|:E|DEGA BABd|eg~g2 agea|gede gedB|cABA GE~E2|
DEGA BABd|eg~g2 agef|gbaf gedB|AcBA G3:|
|:B|dg~g2 bg~g2|bgag edBd|eBBA Gdef|gedB AGEG|
DEGA BABd|eg~g2 agef|gbaf gedB|AcBA G3:|

